public/images/rollup-boost_logo.svg

<svg fill="none" height="26" viewBox="0 0 61 26" width="61" xmlns="http://www.w3.org/2000/svg"><g fill="#1a1d16"><path d="m46.9434 16.9973c-.0076-.1978-.1852-.3247-.3907-.3247l-1.5805.0102c-1.2025-.0406-2.5242.1395-3.1483-.3273-.0076-.0101-.0152-.0203-.0254-.0279-.4896-.6139.2816-3.2675.4998-3.8916.1319-.4389.1801-1.0224-.4008-1.0123-2.6815.3806-4.8557 4.9394-6.6341 6.8903-.4262.4896-.9691 1.1112-1.0984 1.2507-.066.0685-.099.1548-.0964.2435.0076.1979.1852.3248.3906.3248l1.5805-.0102c1.2025.0406 2.5243-.1395 3.1483.3273.0077.0101.0153.0203.0254.0279.4896.6139-.2816 3.2675-.4998 3.8916-.1319.4389-.1801 1.0224.4009 1.0123 2.6815-.3806 4.8556-4.9394 6.634-6.8903.4262-.4896.9691-1.1112 1.0985-1.2507.066-.0685.0989-.1548.0964-.2436z"/><path d="m8.26497 3.10263h-1.61348l-.31965 1.75555h1.66675c.79913 0 1.16952-.24862 1.25831-.74586.12431-.72809-.24862-1.00969-.99193-1.00969zm-.01776 7.80357-1.32934-3.56438h-1.0097l-.6393 3.56438h-3.19144l1.87986-10.639842h4.75417c2.73224 0 4.11484 1.542442 3.68864 4.008322-.2663 1.54245-1.0629 2.37709-2.2705 2.76778l1.8266 3.83074v.0355h-3.70645z"/><path d="m17.8388 11.1726c-3.7242 0-5.533-2.62573-4.8937-6.20786.5125-2.9073 2.854-4.96474 5.9415-4.96474 3.0874 0 5.5507 2.59019 4.9114 6.20783-.515 2.87179-2.7322 4.96477-5.9592 4.96477zm.1953-2.83629c1.5247 0 2.3594-.99194 2.6613-2.64347.2664-1.50693-.3197-2.83881-1.9509-2.83881-1.6313 0-2.4304 1.15176-2.6612 2.48364-.3374 1.8621.3019 2.9961 1.9508 2.9961z"/><path d="m28.8848.266358-1.3471 7.625972h4.2924l-.5327 3.01387h-7.4839l1.8773-10.639842z"/><path d="m37.2235.266358-1.3471 7.625972h4.2924l-.5327 3.01387h-7.4839l1.8773-10.639842z"/><path d="m45.4329 8.14094c1.2761 0 1.7733-.92343 1.9687-2.02192l1.03-5.852662h3.1914l-1.1695 6.651792c-.4617 2.64347-2.3238 4.23915-5.2134 4.23915-2.8895 0-5.0357-1.87982-4.4878-5.00022l1.0452-5.888185h3.1915l-1.0275 5.852665c-.1953 1.09848.0178 2.02192 1.4714 2.02192z"/><path d="m56.3701 3.10258h-.9234l-.4085 2.32382h.9387c.8879 0 1.4181-.24862 1.5602-1.02745.1421-.76361-.2486-1.29383-1.1695-1.29383zm-.4795 5.16263h-1.3648l-.4617 2.64349h-3.1915l1.8799-10.639852h3.9728c3.0316 0 4.5411 1.826582 4.0793 4.434532-.3729 2.16399-2.1284 3.56436-4.914 3.56436z"/><path d="m5.88818 19.2019h-1.95089l-.26637 1.5069h1.96864c.67482 0 1.02745-.2486 1.11625-.6748.08879-.5683-.07104-.8347-.87017-.8347zm.30189-3.813h-1.57796l-.28413 1.5069h1.59572c.78137 0 1.134-.1598 1.22279-.6215.10655-.6216-.15982-.8879-.95895-.8879zm-6.19007 7.9786 1.87985-10.6398h5.19561c2.60795 0 3.67094.9589 3.29794 3.0138-.1953 1.134-.88787 1.8266-1.98636 2.2173v.0177c1.41814.3552 1.79106 1.1873 1.50693 2.7678-.28413 1.5957-1.75554 2.6257-4.31022 2.6257h-5.58375z"/><path d="m15.9362 23.6339c-3.7242 0-5.5331-2.6257-4.8938-6.2078.515-2.9074 2.8566-4.9648 5.9415-4.9648s5.5508 2.5902 4.9115 6.2078c-.515 2.8744-2.7323 4.9648-5.9592 4.9648zm.1953-2.8363c1.5247 0 2.3593-.9919 2.6612-2.6435.2664-1.5069-.3196-2.8388-1.9509-2.8388-1.6312 0-2.4303 1.1518-2.6612 2.4837-.3374 1.8621.3019 2.9961 1.9509 2.9961z"/><path d="m27.5667 23.6339c-3.7242 0-5.533-2.6257-4.8937-6.2078.515-2.9074 2.854-4.9648 5.9414-4.9648 3.0875 0 5.5508 2.5902 4.914 6.2078-.515 2.8744-2.7322 4.9648-5.9592 4.9648zm.1953-2.8363c1.5247 0 2.3594-.9919 2.6613-2.6435.2663-1.5069-.3197-2.8388-1.9509-2.8388-1.6313 0-2.4304 1.1518-2.6613 2.4837-.3374 1.8621.3019 2.9961 1.9509 2.9961z"/><path d="m47.1459 15.7415.5328-3.0138h8.7955l-.5328 3.0138h-2.8033l-1.3471 7.626h-3.1914l1.3471-7.626h-2.8033z"/></g></svg>

<svg width="61" height="26" viewBox="0 0 61 26" fill="none" xmlns="http://www.w3.org/2000/svg">
<path d="M46.9434 16.9973C46.9358 16.7995 46.7582 16.6726 46.5527 16.6726L44.9722 16.6828C43.7697 16.6422 42.448 16.8223 41.8239 16.3555C41.8163 16.3454 41.8087 16.3352 41.7985 16.3276C41.3089 15.7137 42.0801 13.0601 42.2983 12.436C42.4302 11.9971 42.4784 11.4136 41.8975 11.4237C39.216 11.8043 37.0418 16.3631 35.2634 18.314C34.8372 18.8036 34.2943 19.4252 34.165 19.5647C34.099 19.6332 34.066 19.7195 34.0686 19.8082C34.0762 20.0061 34.2538 20.133 34.4592 20.133L36.0397 20.1228C37.2422 20.1634 38.564 19.9833 39.188 20.4501C39.1957 20.4602 39.2033 20.4704 39.2134 20.478C39.703 21.0919 38.9318 23.7455 38.7136 24.3696C38.5817 24.8085 38.5335 25.392 39.1145 25.3819C41.796 25.0013 43.9701 20.4425 45.7485 18.4916C46.1747 18.002 46.7176 17.3804 46.847 17.2409C46.913 17.1724 46.9459 17.0861 46.9434 16.9973Z" fill="#1A1D16"/>
<path d="M8.26497 3.10263H6.65149L6.33184 4.85818H7.99859C8.79772 4.85818 9.16811 4.60956 9.2569 4.11232C9.38121 3.38423 9.00828 3.10263 8.26497 3.10263ZM8.24721 10.9062L6.91787 7.34182H5.90817L5.26887 10.9062H2.07743L3.95729 0.266358H8.71146C11.4437 0.266358 12.8263 1.8088 12.4001 4.27468C12.1338 5.81713 11.3372 6.65177 10.1296 7.04246L11.9562 10.8732V10.9087H8.24975L8.24721 10.9062Z" fill="#1A1D16"/>
<path d="M17.8388 11.1726C14.1146 11.1726 12.3058 8.54687 12.9451 4.96474C13.4576 2.05744 15.7991 0 18.8866 0C21.974 0 24.4373 2.59019 23.798 6.20783C23.283 9.07962 21.0658 11.1726 17.8388 11.1726ZM18.0341 8.33631C19.5588 8.33631 20.3935 7.34437 20.6954 5.69284C20.9618 4.18591 20.3757 2.85403 18.7445 2.85403C17.1132 2.85403 16.3141 4.00579 16.0833 5.33767C15.7459 7.19977 16.3852 8.33377 18.0341 8.33377V8.33631Z" fill="#1A1D16"/>
<path d="M28.8848 0.266358L27.5377 7.89233H31.8301L31.2974 10.9062H23.8135L25.6908 0.266358H28.8848Z" fill="#1A1D16"/>
<path d="M37.2235 0.266358L35.8764 7.89233H40.1688L39.6361 10.9062H32.1522L34.0295 0.266358H37.2235Z" fill="#1A1D16"/>
<path d="M45.4329 8.14094C46.709 8.14094 47.2062 7.21751 47.4016 6.11902L48.4316 0.266358H51.623L50.4535 6.91815C49.9918 9.56162 48.1297 11.1573 45.2401 11.1573C42.3506 11.1573 40.2044 9.27748 40.7523 6.15708L41.7975 0.268895H44.989L43.9615 6.12156C43.7662 7.22004 43.9793 8.14348 45.4329 8.14348V8.14094Z" fill="#1A1D16"/>
<path d="M56.3701 3.10258H55.4467L55.0382 5.4264H55.9769C56.8648 5.4264 57.395 5.17778 57.5371 4.39895C57.6792 3.63534 57.2885 3.10512 56.3676 3.10512L56.3701 3.10258ZM55.8906 8.26521H54.5258L54.0641 10.9087H50.8726L52.7525 0.268848H56.7253C59.7569 0.268848 61.2664 2.09543 60.8046 4.70338C60.4317 6.86737 58.6762 8.26774 55.8906 8.26774V8.26521Z" fill="#1A1D16"/>
<path d="M5.88818 19.2019H3.93729L3.67092 20.7088H5.63956C6.31438 20.7088 6.66701 20.4602 6.75581 20.034C6.8446 19.4657 6.68477 19.1993 5.88564 19.1993L5.88818 19.2019ZM6.19007 15.3889H4.61211L4.32798 16.8958H5.9237C6.70507 16.8958 7.0577 16.736 7.14649 16.2743C7.25304 15.6527 6.98667 15.3864 6.18754 15.3864L6.19007 15.3889ZM0 23.3675L1.87985 12.7277H7.07546C9.68341 12.7277 10.7464 13.6866 10.3734 15.7415C10.1781 16.8755 9.48553 17.5681 8.38704 17.9588V17.9765C9.80518 18.3317 10.1781 19.1638 9.89397 20.7443C9.60984 22.34 8.13843 23.37 5.58375 23.37H0V23.3675Z" fill="#1A1D16"/>
<path d="M15.9362 23.6339C12.212 23.6339 10.4031 21.0082 11.0424 17.4261C11.5574 14.5187 13.899 12.4613 16.9839 12.4613C20.0688 12.4613 22.5347 15.0515 21.8954 18.6691C21.3804 21.5435 19.1631 23.6339 15.9362 23.6339ZM16.1315 20.7976C17.6562 20.7976 18.4908 19.8057 18.7927 18.1541C19.0591 16.6472 18.4731 15.3153 16.8418 15.3153C15.2106 15.3153 14.4115 16.4671 14.1806 17.799C13.8432 19.6611 14.4825 20.7951 16.1315 20.7951V20.7976Z" fill="#1A1D16"/>
<path d="M27.5667 23.6339C23.8425 23.6339 22.0337 21.0082 22.673 17.4261C23.188 14.5187 25.527 12.4613 28.6144 12.4613C31.7019 12.4613 34.1652 15.0515 33.5284 18.6691C33.0134 21.5435 30.7962 23.6339 27.5692 23.6339H27.5667ZM27.762 20.7976C29.2867 20.7976 30.1214 19.8057 30.4233 18.1541C30.6896 16.6472 30.1036 15.3153 28.4724 15.3153C26.8411 15.3153 26.042 16.4671 25.8111 17.799C25.4737 19.6611 26.113 20.7951 27.762 20.7951V20.7976Z" fill="#1A1D16"/>
<path d="M47.1459 15.7415L47.6787 12.7277H56.4742L55.9414 15.7415H53.1381L51.791 23.3675H48.5996L49.9467 15.7415H47.1434H47.1459Z" fill="#1A1D16"/>
</svg>
